;FLAVOR:UltiGCode
;TIME:1886
;MATERIAL:2839
;MATERIAL2:0
;NOZZLE_DIAMETER:0.4
;Generated with Cura_SteamEngine 3.4.1
M82 ;absolute extrusion mode

G92 E0
G10
;LAYER_COUNT:41
;LAYER:0
M107
G0 F4500 X72.632 Y102.754 Z0.2
;TYPE:SKIRT
G11
G1 F1800 X73.294 Y102.364 E0.05378
G1 X73.584 Y102.14 E0.07943
G1 X74.257 Y101.72 E0.13497
G1 X74.97 Y101.37 E0.19056
G1 X75.713 Y101.094 E0.24605
G1 X76.481 Y100.894 E0.3016
G1 X77.265 Y100.772 E0.35714
G1 X78.058 Y100.73 E0.41273
G1 X78.593 Y100.747 E0.4502
G1 X79.528 Y100.808 E0.51579
G1 X80.316 Y100.899 E0.57131
G1 X81.091 Y101.07 E0.62687
G1 X81.845 Y101.317 E0.68241
G1 X82.57 Y101.639 E0.73794
G1 X83.259 Y102.032 E0.79346
G1 X83.905 Y102.493 E0.84902
G1 X84.501 Y103.017 E0.90457
G1 X85.042 Y103.597 E0.96009
G1 X85.521 Y104.23 E1.01565
G1 X85.935 Y104.907 E1.0712
G1 X86.278 Y105.622 E1.12671
G1 X86.495 Y106.202 E1.17006
G1 X86.778 Y107.061 E1.23337
G1 X86.936 Y107.637 E1.27518
G1 X86.98 Y107.448 E1.28876
G1 X87.235 Y106.697 E1.34428
G1 X87.566 Y105.976 E1.39982
G1 X87.967 Y105.291 E1.45538
G1 X88.435 Y104.65 E1.51094
G1 X88.965 Y104.06 E1.56645
G1 X89.422 Y103.635 E1.61014
G1 X89.521 Y103.55 E1.61927
G1 X90.148 Y103.064 E1.6748
G1 X90.821 Y102.644 E1.73033
G1 X91.533 Y102.293 E1.7859
G1 X92.277 Y102.016 E1.84147
G1 X93.044 Y101.816 E1.89696
G1 X93.828 Y101.693 E1.95251
G1 X94.644 Y101.65 E2.00971
G1 X127.943 Y101.619 E4.34064
G1 X128.268 Y101.299 E4.37257
G1 X128.37 Y101.206 E4.38223
G1 X128.983 Y100.701 E4.43783
G1 X129.643 Y100.261 E4.49335
G1 X130.344 Y99.89 E4.54887
G1 X131.079 Y99.591 E4.60441
G1 X131.84 Y99.367 E4.65994
G1 X132.62 Y99.221 E4.71549
G1 X133.676 Y99.15 E4.78958
G1 X145.146 Y99.15 E5.59248
G1 X145.938 Y99.19 E5.64799
G1 X146.723 Y99.309 E5.70357
G1 X147.491 Y99.507 E5.75908
G1 X148.236 Y99.782 E5.81467
G1 X148.949 Y100.129 E5.87018
G1 X149.624 Y100.547 E5.92576
G1 X150.253 Y101.03 E5.98127
G1 X150.687 Y101.429 E6.02254
G1 X150.79 Y101.531 E6.03269
G1 X151.325 Y102.117 E6.08823
G1 X151.798 Y102.754 E6.14377
G1 X152.205 Y103.436 E6.19936
G1 X152.541 Y104.154 E6.25485
G1 X152.804 Y104.903 E6.31042
G1 X152.989 Y105.675 E6.36599
G1 X153.096 Y106.461 E6.42152
G1 X153.124 Y107.125 E6.46804
G1 X153.125 Y111.37 E6.76519
G1 X153.085 Y112.163 E6.82077
G1 X152.966 Y112.947 E6.87628
G1 X152.768 Y113.716 E6.93187
G1 X152.494 Y114.46 E6.98737
G1 X152.147 Y115.174 E7.04294
G1 X151.729 Y115.848 E7.09845
G1 X151.246 Y116.478 E7.15402
G1 X150.846 Y116.913 E7.19539
G1 X150.744 Y117.016 E7.20553
G1 X150.158 Y117.551 E7.26108
G1 X149.521 Y118.024 E7.31662
G1 X148.839 Y118.431 E7.37221
G1 X148.121 Y118.767 E7.4277
G1 X147.372 Y119.03 E7.48327
G1 X146.6 Y119.215 E7.53884
G1 X145.814 Y119.322 E7.59437
G1 X145.176 Y119.35 E7.63907
G1 X138.572 Y119.373 E8.10136
G1 X138.498 Y119.444 E8.10853
G1 X137.871 Y119.931 E8.16411
G1 X137.199 Y120.352 E8.21962
G1 X136.487 Y120.703 E8.27518
G1 X135.744 Y120.981 E8.33072
G1 X134.977 Y121.183 E8.38624
G1 X134.193 Y121.306 E8.44179
G1 X133.361 Y121.35 E8.50011
G1 X94.645 Y121.35 E11.21023
G1 X93.853 Y121.31 E11.26574
G1 X93.068 Y121.191 E11.32132
G1 X92.3 Y120.993 E11.37683
G1 X91.555 Y120.718 E11.43242
G1 X90.842 Y120.371 E11.48793
G1 X90.167 Y119.953 E11.54351
G1 X89.417 Y119.364 E11.61026
G1 X89.319 Y119.277 E11.61944
G1 X88.753 Y118.721 E11.67497
G1 X88.246 Y118.111 E11.7305
G1 X87.802 Y117.453 E11.78606
G1 X87.427 Y116.754 E11.84159
G1 X87.125 Y116.02 E11.89715
G1 X86.947 Y115.424 E11.94069
G1 X86.9 Y115.632 E11.95562
G1 X86.594 Y116.521 E12.02143
G1 X86.243 Y117.371 E12.0858
G1 X85.903 Y118.088 E12.14135
G1 X85.494 Y118.767 E12.19684
G1 X85.017 Y119.402 E12.25243
G1 X84.48 Y119.986 E12.30797
G1 X83.886 Y120.512 E12.3635
G1 X83.243 Y120.976 E12.41901
G1 X82.556 Y121.373 E12.47455
G1 X81.832 Y121.699 E12.53013
G1 X81.079 Y121.951 E12.58572
G1 X80.305 Y122.125 E12.64125
G1 X79.518 Y122.221 E12.69675
G1 X78.964 Y122.24 E12.73555
G1 X78.049 Y122.24 E12.7996
G1 X77.257 Y122.2 E12.85511
G1 X76.472 Y122.081 E12.91069
G1 X75.704 Y121.883 E12.96621
G1 X74.959 Y121.608 E13.0218
G1 X74.246 Y121.261 E13.0773
G1 X73.571 Y120.843 E13.13288
G1 X73.289 Y120.627 E13.15774
G1 X73.175 Y120.571 E13.16663
G1 X72.5 Y120.153 E13.22221
G1 X71.871 Y119.67 E13.27772
G1 X71.435 Y119.268 E13.31924
G1 X71.211 Y119.046 E13.34131
G1 X70.676 Y118.46 E13.39686
G1 X70.203 Y117.823 E13.4524
G1 X69.796 Y117.142 E13.50793
G1 X69.46 Y116.423 E13.56349
G1 X69.199 Y115.674 E13.61901
G1 X69.013 Y114.902 E13.67459
G1 X68.907 Y114.116 E13.73011
G1 X68.879 Y113.455 E13.77642
G1 X68.878 Y109.547 E14.04998
G1 X68.918 Y108.755 E14.10549
G1 X69.037 Y107.97 E14.16107
G1 X69.235 Y107.202 E14.21659
G1 X69.509 Y106.457 E14.27215
G1 X69.856 Y105.744 E14.32766
G1 X70.274 Y105.069 E14.38324
G1 X70.757 Y104.44 E14.43875
G1 X71.185 Y103.977 E14.48289
G1 X71.405 Y103.757 E14.50467
G1 X71.993 Y103.224 E14.56022
G1 X72.632 Y102.754 E14.61575
G0 F4500 X72.854 Y103.027
G1 F1800 X73.471 Y102.668 E14.66572
G1 X73.856 Y102.378 E14.69946
G1 X74.519 Y101.976 E14.75373
G1 X75.22 Y101.644 E14.80803
G1 X75.952 Y101.387 E14.86233
G1 X76.706 Y101.206 E14.91661
G1 X77.475 Y101.104 E14.97091
G1 X78.57 Y101.096 E15.04756
G1 X79.505 Y101.157 E15.11315
G1 X80.275 Y101.247 E15.16742
G1 X81.032 Y101.416 E15.22172
G1 X81.768 Y101.663 E15.27606
G1 X82.474 Y101.983 E15.33032
G1 X83.144 Y102.375 E15.38466
G1 X83.769 Y102.833 E15.4389
G1 X84.344 Y103.353 E15.49316
G1 X84.863 Y103.93 E15.54749
G1 X85.319 Y104.557 E15.60176
G1 X85.709 Y105.228 E15.65609
G1 X86.027 Y105.935 E15.71035
G1 X86.162 Y106.311 E15.73832
G1 X86.445 Y107.17 E15.80163
G1 X86.65 Y107.919 E15.85598
G1 X86.776 Y108.684 E15.91026
G1 X86.823 Y109.458 E15.96454
G1 X86.79 Y110.233 E16.01883
G1 X86.677 Y111 E16.0731
G1 X86.553 Y111.488 E16.10835
G1 X86.688 Y112.008 E16.14596
G1 X86.803 Y112.775 E16.20025
G1 X86.84 Y113.549 E16.25449
G1 X86.796 Y114.324 E16.30883
G1 X86.673 Y115.09 E16.36313
G1 X86.472 Y115.839 E16.41742
G1 X86.27 Y116.387 E16.4583
G1 X85.919 Y117.237 E16.52267
G1 X85.587 Y117.938 E16.57697
G1 X85.184 Y118.601 E16.63128
G1 X84.715 Y119.218 E16.68553
G1 X84.185 Y119.785 E16.73986
G1 X83.599 Y120.293 E16.79415
G1 X82.964 Y120.739 E16.84847
G1 X82.287 Y121.117 E16.90274
G1 X81.574 Y121.423 E16.95706
G1 X80.834 Y121.654 E17.01132
G1 X80.074 Y121.808 E17.0656
G1 X78.964 Y121.89 E17.14351
G1 X78.049 Y121.89 E17.20756
G1 X77.274 Y121.85 E17.26189
G1 X76.508 Y121.731 E17.31615
G1 X75.758 Y121.533 E17.37045
G1 X75.032 Y121.259 E17.42477
G1 X74.339 Y120.912 E17.47902
G1 X73.685 Y120.495 E17.53331
G1 X73.465 Y120.321 E17.55295
G1 X73.268 Y120.222 E17.56838
G1 X72.614 Y119.805 E17.62268
G1 X72.006 Y119.323 E17.67699
G1 X71.681 Y119.02 E17.70809
G1 X71.457 Y118.798 E17.73017
G1 X70.935 Y118.224 E17.78448
G1 X70.475 Y117.6 E17.83874
G1 X70.081 Y116.931 E17.89309
G1 X69.759 Y116.226 E17.94734
G1 X69.51 Y115.491 E18.00167
G1 X69.339 Y114.735 E18.05592
G1 X69.246 Y113.965 E18.11022
G1 X69.229 Y113.455 E18.14593
G1 X69.228 Y109.547 E18.41949
G1 X69.268 Y108.772 E18.47382
G1 X69.387 Y108.006 E18.52808
G1 X69.585 Y107.256 E18.58238
G1 X69.858 Y106.53 E18.63667
G1 X70.205 Y105.836 E18.69099
G1 X70.622 Y105.182 E18.74528
G1 X71.104 Y104.574 E18.79959
G1 X71.432 Y104.224 E18.83317
G1 X71.652 Y104.004 E18.85495
G1 X72.228 Y103.485 E18.90922
G1 X72.854 Y103.027 E18.96352
G0 F4500 X73.076 Y103.301
G1 F1800 X73.644 Y102.974 E19.0094
G1 X74.126 Y102.618 E19.05134
G1 X74.779 Y102.234 E19.10437
G1 X75.469 Y101.922 E19.15738
G1 X76.188 Y101.684 E19.21039
G1 X76.928 Y101.523 E19.2634
G1 X77.681 Y101.441 E19.31643
G1 X78.547 Y101.445 E19.37705
G1 X79.482 Y101.506 E19.44264
G1 X80.234 Y101.595 E19.49564
G1 X80.973 Y101.763 E19.54869
G1 X81.689 Y102.008 E19.60167
G1 X82.376 Y102.327 E19.65469
G1 X83.026 Y102.717 E19.70775
G1 X83.631 Y103.173 E19.76078
G1 X84.184 Y103.69 E19.81377
G1 X84.68 Y104.262 E19.86677
G1 X85.112 Y104.884 E19.91978
G1 X85.477 Y105.548 E19.97282
G1 X85.83 Y106.421 E20.03874
G1 X86.113 Y107.28 E20.10205
G1 X86.311 Y108.011 E20.15506
G1 X86.432 Y108.758 E20.20803
G1 X86.473 Y109.515 E20.2611
G1 X86.434 Y110.271 E20.31409
G1 X86.316 Y111.019 E20.3671
G1 X86.191 Y111.482 E20.40067
G1 X86.22 Y111.567 E20.40696
G1 X86.387 Y112.306 E20.45999
G1 X86.475 Y113.058 E20.51299
G1 X86.484 Y113.815 E20.56598
G1 X86.412 Y114.569 E20.619
G1 X86.261 Y115.311 E20.67201
G1 X85.947 Y116.254 E20.74158
G1 X85.596 Y117.104 E20.80595
G1 X85.27 Y117.787 E20.85893
G1 X84.874 Y118.433 E20.91197
G1 X84.413 Y119.033 E20.96494
G1 X83.89 Y119.582 E21.01801
G1 X83.313 Y120.072 E21.071
G1 X82.687 Y120.498 E21.12401
G1 X82.02 Y120.857 E21.17703
G1 X81.318 Y121.143 E21.23009
G1 X80.591 Y121.353 E21.28306
G1 X79.845 Y121.486 E21.33611
G1 X78.964 Y121.54 E21.39789
G1 X78.049 Y121.54 E21.46194
G1 X77.293 Y121.5 E21.51494
G1 X76.545 Y121.381 E21.56795
G1 X75.814 Y121.183 E21.62097
G1 X75.107 Y120.909 E21.67404
G1 X74.434 Y120.563 E21.72702
G1 X73.801 Y120.147 E21.78004
G1 X73.641 Y120.016 E21.79451
G1 X73.363 Y119.873 E21.8164
G1 X72.73 Y119.457 E21.86942
G1 X71.927 Y118.771 E21.94335
G1 X71.703 Y118.549 E21.96542
G1 X71.194 Y117.988 E22.01845
G1 X70.747 Y117.377 E22.07144
G1 X70.367 Y116.722 E22.12445
G1 X70.058 Y116.031 E22.17744
G1 X69.824 Y115.31 E22.2305
G1 X69.666 Y114.57 E22.28346
G1 X69.579 Y113.455 E22.36175
G1 X69.578 Y109.547 E22.63531
G1 X69.618 Y108.791 E22.68831
G1 X69.737 Y108.043 E22.74132
G1 X69.935 Y107.311 E22.79441
G1 X70.208 Y106.605 E22.84739
G1 X70.554 Y105.932 E22.90036
G1 X70.97 Y105.298 E22.95344
G1 X71.68 Y104.472 E23.02969
G1 X71.9 Y104.252 E23.05147
G1 X72.463 Y103.745 E23.1045
G1 X73.076 Y103.301 E23.15749
G0 F4500 X73.297 Y103.575
G1 F1800 X73.794 Y103.293 E23.19749
G1 X73.796 Y103.292 E23.19764
G1 X74.396 Y102.86 E23.2494
G1 X75.038 Y102.495 E23.30109
G1 X75.716 Y102.202 E23.35279
G1 X76.422 Y101.984 E23.40452
G1 X77.147 Y101.844 E23.4562
G1 X77.883 Y101.783 E23.5079
G1 X78.524 Y101.794 E23.55278
G1 X79.459 Y101.855 E23.61837
G1 X80.193 Y101.943 E23.67011
G1 X80.912 Y102.11 E23.72178
G1 X81.61 Y102.353 E23.77352
G1 X82.277 Y102.671 E23.82524
G1 X82.905 Y103.058 E23.87688
G1 X83.489 Y103.512 E23.92866
G1 X84.02 Y104.025 E23.98034
G1 X84.492 Y104.593 E24.03204
G1 X84.9 Y105.209 E24.08376
G1 X85.239 Y105.865 E24.13545
G1 X85.497 Y106.53 E24.18538
G1 X85.78 Y107.389 E24.24869
G1 X85.973 Y108.102 E24.3004
G1 X86.088 Y108.832 E24.35213
G1 X86.123 Y109.57 E24.40384
G1 X86.078 Y110.307 E24.45553
G1 X85.954 Y111.035 E24.50722
G1 X85.824 Y111.493 E24.54055
G1 X85.94 Y111.874 E24.56843
G1 X86.078 Y112.599 E24.62009
G1 X86.138 Y113.336 E24.67185
G1 X86.117 Y114.074 E24.72353
G1 X86.017 Y114.806 E24.77525
G1 X85.838 Y115.522 E24.82691
G1 X85.623 Y116.12 E24.87139
G1 X85.272 Y116.97 E24.93577
G1 X84.954 Y117.636 E24.98743
G1 X84.565 Y118.265 E25.0392
G1 X84.111 Y118.847 E25.09087
G1 X83.596 Y119.377 E25.1426
G1 X83.028 Y119.848 E25.19425
G1 X82.411 Y120.255 E25.24599
G1 X81.755 Y120.593 E25.29765
G1 X81.065 Y120.859 E25.34941
G1 X80.351 Y121.048 E25.40111
G1 X79.621 Y121.158 E25.45279
G1 X78.964 Y121.19 E25.49883
G1 X78.049 Y121.19 E25.56288
G1 X77.311 Y121.15 E25.61462
G1 X76.583 Y121.031 E25.66626
G1 X75.871 Y120.833 E25.71799
G1 X75.185 Y120.56 E25.76967
G1 X74.532 Y120.214 E25.8214
G1 X73.92 Y119.8 E25.87312
G1 X73.817 Y119.713 E25.88256
G1 X73.461 Y119.524 E25.91077
G1 X72.849 Y119.11 E25.9625
G1 X72.174 Y118.523 E26.02511
G1 X71.95 Y118.301 E26.04719
G1 X71.454 Y117.753 E26.09893
G1 X71.02 Y117.155 E26.15065
G1 X70.654 Y116.514 E26.20232
G1 X70.359 Y115.837 E26.25401
G1 X70.139 Y115.132 E26.30571
G1 X69.996 Y114.407 E26.35744
G1 X69.929 Y113.455 E26.42424
G1 X69.928 Y109.547 E26.6978
G1 X69.968 Y108.809 E26.74954
G1 X70.087 Y108.08 E26.80125
G1 X70.284 Y107.368 E26.85296
G1 X70.557 Y106.682 E26.90464
G1 X70.903 Y106.029 E26.95637
G1 X71.317 Y105.418 E27.00803
G1 X71.927 Y104.719 E27.07298
G1 X72.147 Y104.499 E27.09475
G1 X72.697 Y104.006 E27.14646
G1 X73.297 Y103.575 E27.19817
G0 F4500 X73.517 Y103.85
G1 F1800 X74.008 Y103.577 E27.2375
G1 X74.075 Y103.518 E27.24375
G1 X74.664 Y103.105 E27.2941
G1 X75.295 Y102.76 E27.34444
G1 X75.961 Y102.487 E27.39483
G1 X76.652 Y102.289 E27.44514
G1 X77.362 Y102.17 E27.49554
G1 X78.08 Y102.13 E27.54587
G1 X78.502 Y102.144 E27.57543
G1 X79.437 Y102.205 E27.64102
G1 X80.151 Y102.291 E27.69136
G1 X80.851 Y102.457 E27.74172
G1 X81.528 Y102.699 E27.79205
G1 X82.175 Y103.014 E27.84242
G1 X82.782 Y103.4 E27.89277
G1 X83.343 Y103.85 E27.94312
G1 X83.851 Y104.36 E27.9935
G1 X84.299 Y104.923 E28.04387
G1 X84.681 Y105.533 E28.09425
G1 X84.994 Y106.181 E28.14462
G1 X85.165 Y106.64 E28.17891
G1 X85.448 Y107.499 E28.24222
G1 X85.635 Y108.194 E28.2926
G1 X85.743 Y108.905 E28.34294
G1 X85.772 Y109.624 E28.39331
G1 X85.721 Y110.341 E28.44363
G1 X85.591 Y111.049 E28.49402
G1 X85.461 Y111.478 E28.5254
G1 X85.463 Y111.482 E28.52571
G1 X85.65 Y112.177 E28.57609
G1 X85.76 Y112.888 E28.62645
G1 X85.789 Y113.607 E28.67682
G1 X85.739 Y114.324 E28.72714
G1 X85.61 Y115.032 E28.77751
G1 X85.3 Y115.986 E28.84773
G1 X84.949 Y116.836 E28.9121
G1 X84.638 Y117.485 E28.96248
G1 X84.257 Y118.095 E29.01282
G1 X83.81 Y118.659 E29.0632
G1 X83.304 Y119.17 E29.11354
G1 X82.744 Y119.622 E29.16391
G1 X82.137 Y120.009 E29.21431
G1 X81.491 Y120.326 E29.26468
G1 X80.815 Y120.57 E29.31499
G1 X80.115 Y120.737 E29.36536
G1 X79.401 Y120.825 E29.41572
G1 X78.964 Y120.84 E29.44633
G1 X78.049 Y120.84 E29.51038
G1 X77.331 Y120.8 E29.56071
G1 X76.621 Y120.681 E29.61111
G1 X75.929 Y120.483 E29.66149
G1 X75.264 Y120.21 E29.71181
G1 X74.632 Y119.865 E29.76221
G1 X74.043 Y119.452 E29.81257
G1 X74.002 Y119.416 E29.81639
G1 X73.561 Y119.175 E29.85157
G1 X72.972 Y118.762 E29.90192
G1 X72.42 Y118.274 E29.9535
G1 X72.196 Y118.052 E29.97557
G1 X71.714 Y117.518 E30.02593
G1 X71.294 Y116.934 E30.07628
G1 X70.942 Y116.307 E30.12662
G1 X70.661 Y115.644 E30.17702
G1 X70.456 Y114.955 E30.22734
G1 X70.328 Y114.247 E30.27771
G1 X70.279 Y113.455 E30.33325
G1 X70.278 Y109.547 E30.60681
G1 X70.318 Y108.828 E30.65722
G1 X70.437 Y108.119 E30.70754
G1 X70.634 Y107.427 E30.75791
G1 X70.907 Y106.761 E30.80829
G1 X71.252 Y106.13 E30.85863
G1 X71.665 Y105.541 E30.90899
G1 X72.174 Y104.966 E30.96275
G1 X72.394 Y104.746 E30.98452
G1 X72.931 Y104.267 E31.0349
G1 X73.517 Y103.85 E31.08524
G0 F4500 X73.736 Y104.125
G1 F1800 X74.213 Y103.865 E31.12327
G1 X74.352 Y103.745 E31.13612
G1 X74.93 Y103.352 E31.18505
G1 X75.55 Y103.027 E31.23405
G1 X76.203 Y102.775 E31.28305
G1 X76.88 Y102.599 E31.33201
G1 X77.573 Y102.501 E31.381
G1 X78.479 Y102.493 E31.44443
G1 X79.414 Y102.554 E31.51002
G1 X80.108 Y102.639 E31.55896
G1 X80.788 Y102.803 E31.60792
G1 X81.446 Y103.044 E31.65698
G1 X82.071 Y103.358 E31.70594
G1 X82.656 Y103.741 E31.75488
G1 X83.194 Y104.188 E31.80385
G1 X83.678 Y104.694 E31.85286
G1 X84.1 Y105.252 E31.90183
G1 X84.456 Y105.854 E31.95079
G1 X84.832 Y106.749 E32.01874
G1 X85.115 Y107.608 E32.08205
G1 X85.296 Y108.284 E32.13104
G1 X85.398 Y108.977 E32.18007
G1 X85.421 Y109.676 E32.22903
G1 X85.364 Y110.373 E32.27798
G1 X85.228 Y111.06 E32.32701
G1 X85.087 Y111.497 E32.35915
G1 X85.193 Y111.794 E32.38122
G1 X85.351 Y112.475 E32.43016
G1 X85.43 Y113.17 E32.47912
G1 X85.43 Y113.87 E32.52812
G1 X85.349 Y114.565 E32.5771
G1 X85.19 Y115.247 E32.62612
G1 X84.976 Y115.853 E32.67111
G1 X84.625 Y116.703 E32.73548
G1 X84.322 Y117.333 E32.78442
G1 X83.948 Y117.925 E32.83343
G1 X83.51 Y118.47 E32.88238
G1 X83.012 Y118.962 E32.93138
G1 X82.461 Y119.393 E32.98035
G1 X81.865 Y119.76 E33.02934
G1 X81.231 Y120.055 E33.07829
G1 X80.567 Y120.277 E33.1273
G1 X79.882 Y120.421 E33.1763
